static/img/kroki/fe138995654542e9412256e3bd8c9ec3.svg

<?xml version="1.0" encoding="us-ascii" standalone="no"?><svg xmlns="http://www.w3.org/2000/svg" xmlns:xlink="http://www.w3.org/1999/xlink" contentStyleType="text/css" height="352px" preserveAspectRatio="none" style="width:1000px;height:352px;" version="1.1" viewBox="0 0 1000 352" width="1000px" zoomAndPan="magnify"><defs/><g><!--class aws_api_gateway_authorizer--><g id="elem_aws_api_gateway_authorizer"><rect codeLine="22" fill="#3D176E" height="39.7891" id="aws_api_gateway_authorizer" rx="2.5" ry="2.5" style="stroke:#000D19;stroke-width:0.5;" width="285" x="278.28" y="206.58"/><ellipse cx="293.28" cy="226.4745" fill="#ADD1B2" rx="11" ry="11" style="stroke:#181818;stroke-width:1.0;"/><path d="M296.2488,232.1152 Q295.6706,232.412 295.03,232.5527 Q294.3894,232.7089 293.6863,232.7089 Q291.1863,232.7089 289.8581,231.0683 Q288.5456,229.412 288.5456,226.287 Q288.5456,223.162 289.8581,221.5058 Q291.1863,219.8495 293.6863,219.8495 Q294.3894,219.8495 295.03,220.0058 Q295.6863,220.162 296.2488,220.4589 L296.2488,223.1777 Q295.6238,222.5995 295.03,222.3339 Q294.4363,222.0527 293.8113,222.0527 Q292.4675,222.0527 291.78,223.1308 Q291.0925,224.1933 291.0925,226.287 Q291.0925,228.3808 291.78,229.4589 Q292.4675,230.5214 293.8113,230.5214 Q294.4363,230.5214 295.03,230.2558 Q295.6238,229.9745 296.2488,229.3964 L296.2488,232.1152 Z " fill="#000000"/><text fill="#D9B8FF" font-family="Helvetica" font-size="17" lengthAdjust="spacing" textLength="243" x="312.28" y="232.3598">aws_api_gateway_authorizer</text></g><!--class aws_api_gateway_deployment--><g id="elem_aws_api_gateway_deployment"><rect codeLine="24" fill="#3D176E" height="39.7891" id="aws_api_gateway_deployment" rx="2.5" ry="2.5" style="stroke:#000D19;stroke-width:0.5;" width="299" x="88.28" y="106.79"/><ellipse cx="103.28" cy="126.6845" fill="#ADD1B2" rx="11" ry="11" style="stroke:#181818;stroke-width:1.0;"/><path d="M106.2488,132.3252 Q105.6706,132.622 105.03,132.7627 Q104.3894,132.9189 103.6863,132.9189 Q101.1863,132.9189 99.8581,131.2783 Q98.5456,129.622 98.5456,126.497 Q98.5456,123.372 99.8581,121.7158 Q101.1863,120.0595 103.6863,120.0595 Q104.3894,120.0595 105.03,120.2158 Q105.6863,120.372 106.2488,120.6689 L106.2488,123.3877 Q105.6238,122.8095 105.03,122.5439 Q104.4363,122.2627 103.8113,122.2627 Q102.4675,122.2627 101.78,123.3408 Q101.0925,124.4033 101.0925,126.497 Q101.0925,128.5908 101.78,129.6689 Q102.4675,130.7314 103.8113,130.7314 Q104.4363,130.7314 105.03,130.4658 Q105.6238,130.1845 106.2488,129.6064 L106.2488,132.3252 Z " fill="#000000"/><text fill="#D9B8FF" font-family="Helvetica" font-size="17" lengthAdjust="spacing" textLength="257" x="122.28" y="132.5698">aws_api_gateway_deployment</text></g><!--class aws_api_gateway_resource--><g id="elem_aws_api_gateway_resource"><rect codeLine="26" fill="#3D176E" height="39.7891" id="aws_api_gateway_resource" rx="2.5" ry="2.5" style="stroke:#000D19;stroke-width:0.5;" width="270" x="422.78" y="106.79"/><ellipse cx="437.78" cy="126.6845" fill="#ADD1B2" rx="11" ry="11" style="stroke:#181818;stroke-width:1.0;"/><path d="M440.7488,132.3252 Q440.1706,132.622 439.53,132.7627 Q438.8894,132.9189 438.1863,132.9189 Q435.6863,132.9189 434.3581,131.2783 Q433.0456,129.622 433.0456,126.497 Q433.0456,123.372 434.3581,121.7158 Q435.6863,120.0595 438.1863,120.0595 Q438.8894,120.0595 439.53,120.2158 Q440.1863,120.372 440.7488,120.6689 L440.7488,123.3877 Q440.1238,122.8095 439.53,122.5439 Q438.9363,122.2627 438.3113,122.2627 Q436.9675,122.2627 436.28,123.3408 Q435.5925,124.4033 435.5925,126.497 Q435.5925,128.5908 436.28,129.6689 Q436.9675,130.7314 438.3113,130.7314 Q438.9363,130.7314 439.53,130.4658 Q440.1238,130.1845 440.7488,129.6064 L440.7488,132.3252 Z " fill="#000000"/><text fill="#D9B8FF" font-family="Helvetica" font-size="17" lengthAdjust="spacing" textLength="228" x="456.78" y="132.5698">aws_api_gateway_resource</text></g><!--class aws_api_gateway_rest_api--><g id="elem_aws_api_gateway_rest_api"><rect codeLine="28" fill="#3D176E" height="39.7891" id="aws_api_gateway_rest_api" rx="2.5" ry="2.5" style="stroke:#000D19;stroke-width:0.5;" width="265" x="425.28" y="7"/><ellipse cx="440.28" cy="26.8945" fill="#ADD1B2" rx="11" ry="11" style="stroke:#181818;stroke-width:1.0;"/><path d="M443.2488,32.5352 Q442.6706,32.832 442.03,32.9727 Q441.3894,33.1289 440.6863,33.1289 Q438.1863,33.1289 436.8581,31.4883 Q435.5456,29.832 435.5456,26.707 Q435.5456,23.582 436.8581,21.9258 Q438.1863,20.2695 440.6863,20.2695 Q441.3894,20.2695 442.03,20.4258 Q442.6863,20.582 443.2488,20.8789 L443.2488,23.5977 Q442.6238,23.0195 442.03,22.7539 Q441.4363,22.4727 440.8113,22.4727 Q439.4675,22.4727 438.78,23.5508 Q438.0925,24.6133 438.0925,26.707 Q438.0925,28.8008 438.78,29.8789 Q439.4675,30.9414 440.8113,30.9414 Q441.4363,30.9414 442.03,30.6758 Q442.6238,30.3945 443.2488,29.8164 L443.2488,32.5352 Z " fill="#000000"/><text fill="#D9B8FF" font-family="Helvetica" font-size="17" lengthAdjust="spacing" textLength="223" x="459.28" y="32.7798">aws_api_gateway_rest_api</text></g><!--class aws_lambda_function--><g id="elem_aws_lambda_function"><rect codeLine="30" fill="#3D176E" height="39.7891" id="aws_lambda_function" rx="2.5" ry="2.5" style="stroke:#000D19;stroke-width:0.5;" width="224" x="503.78" y="306.37"/><ellipse cx="518.78" cy="326.2645" fill="#ADD1B2" rx="11" ry="11" style="stroke:#181818;stroke-width:1.0;"/><path d="M521.7488,331.9052 Q521.1706,332.202 520.53,332.3427 Q519.8894,332.4989 519.1863,332.4989 Q516.6863,332.4989 515.3581,330.8583 Q514.0456,329.202 514.0456,326.077 Q514.0456,322.952 515.3581,321.2958 Q516.6863,319.6395 519.1863,319.6395 Q519.8894,319.6395 520.53,319.7958 Q521.1863,319.952 521.7488,320.2489 L521.7488,322.9677 Q521.1238,322.3895 520.53,322.1239 Q519.9363,321.8427 519.3113,321.8427 Q517.9675,321.8427 517.28,322.9208 Q516.5925,323.9833 516.5925,326.077 Q516.5925,328.1708 517.28,329.2489 Q517.9675,330.3114 519.3113,330.3114 Q519.9363,330.3114 520.53,330.0458 Q521.1238,329.7645 521.7488,329.1864 L521.7488,331.9052 Z " fill="#000000"/><text fill="#D9B8FF" font-family="Helvetica" font-size="17" lengthAdjust="spacing" textLength="182" x="537.78" y="332.1498">aws_lambda_function</text></g><!--class aws_vpc_endpoint--><g id="elem_aws_vpc_endpoint"><rect codeLine="32" fill="#3D176E" height="39.7891" id="aws_vpc_endpoint" rx="2.5" ry="2.5" style="stroke:#000D19;stroke-width:0.5;" width="195" x="798.28" y="106.79"/><ellipse cx="813.28" cy="126.6845" fill="#ADD1B2" rx="11" ry="11" style="stroke:#181818;stroke-width:1.0;"/><path d="M816.2488,132.3252 Q815.6706,132.622 815.03,132.7627 Q814.3894,132.9189 813.6863,132.9189 Q811.1863,132.9189 809.8581,131.2783 Q808.5456,129.622 808.5456,126.497 Q808.5456,123.372 809.8581,121.7158 Q811.1863,120.0595 813.6863,120.0595 Q814.3894,120.0595 815.03,120.2158 Q815.6863,120.372 816.2488,120.6689 L816.2488,123.3877 Q815.6238,122.8095 815.03,122.5439 Q814.4363,122.2627 813.8113,122.2627 Q812.4675,122.2627 811.78,123.3408 Q811.0925,124.4033 811.0925,126.497 Q811.0925,128.5908 811.78,129.6689 Q812.4675,130.7314 813.8113,130.7314 Q814.4363,130.7314 815.03,130.4658 Q815.6238,130.1845 816.2488,129.6064 L816.2488,132.3252 Z " fill="#000000"/><text fill="#D9B8FF" font-family="Helvetica" font-size="17" lengthAdjust="spacing" textLength="153" x="832.28" y="132.5698">aws_vpc_endpoint</text></g><!--link aws_api_gateway_authorizer to aws_lambda_function--><g id="link_aws_api_gateway_authorizer_aws_lambda_function"><path codeLine="34" d="M459.31,246.8 C491.76,263.07 538.17,286.34 572.01,303.32 " fill="none" id="aws_api_gateway_authorizer-to-aws_lambda_function" style="stroke:#1A83AF;stroke-width:2.0;"/><polygon fill="#1A83AF" points="576.33,305.99,570.0787,298.3794,571.8607,303.7482,566.4919,305.5302,576.33,305.99" style="stroke:#1A83AF;stroke-width:2.0;"/></g><!--link aws_api_gateway_resource to aws_api_gateway_authorizer--><g id="link_aws_api_gateway_resource_aws_api_gateway_authorizer"><path codeLine="35" d="M530.71,147.01 C508.2,163.08 476.11,185.98 452.41,202.9 " fill="none" id="aws_api_gateway_resource-to-aws_api_gateway_authorizer" style="stroke:#1A83AF;stroke-width:2.0;"/><polygon fill="#1A83AF" points="448.79,206.2,458.4366,204.2142,452.8558,203.2898,453.7802,197.709,448.79,206.2" style="stroke:#1A83AF;stroke-width:2.0;"/></g><!--link aws_api_gateway_resource to aws_lambda_function--><g id="link_aws_api_gateway_resource_aws_lambda_function"><path codeLine="36" d="M563.45,146.99 C574.02,182.99 596.72,260.34 608.44,300.27 " fill="none" id="aws_api_gateway_resource-to-aws_lambda_function" style="stroke:#1A83AF;stroke-width:2.0;"/><polygon fill="#1A83AF" points="610.09,304.88,611.3832,295.1164,608.6769,300.0839,603.7094,297.3775,610.09,304.88" style="stroke:#1A83AF;stroke-width:2.0;"/></g><!--link aws_api_gateway_rest_api to aws_api_gateway_authorizer--><g id="link_aws_api_gateway_rest_api_aws_api_gateway_authorizer"><path codeLine="37" d="M424.82,30.74 C296.57,36.62 115.47,54.28 70.78,106.79 C6,182.91 149.66,210.34 272.07,220.15 " fill="none" id="aws_api_gateway_rest_api-to-aws_api_gateway_authorizer" style="stroke:#1A83AF;stroke-width:2.0;"/><polygon fill="#1A83AF" points="276.88,220.6,268.2153,215.9177,271.8949,220.2143,267.5983,223.8939,276.88,220.6" style="stroke:#1A83AF;stroke-width:2.0;"/></g><!--link aws_api_gateway_rest_api to aws_api_gateway_deployment--><g id="link_aws_api_gateway_rest_api_aws_api_gateway_deployment"><path codeLine="38" d="M494.56,47.22 C440.41,63.77 362.57,87.55 306.81,104.59 " fill="none" id="aws_api_gateway_rest_api-to-aws_api_gateway_deployment" style="stroke:#1A83AF;stroke-width:2.0;"/><polygon fill="#1A83AF" points="302.14,106.32,311.9181,107.4984,306.9192,104.8506,309.567,99.8517,302.14,106.32" style="stroke:#1A83AF;stroke-width:2.0;"/></g><!--link aws_api_gateway_rest_api to aws_api_gateway_resource--><g id="link_aws_api_gateway_rest_api_aws_api_gateway_resource"><path codeLine="39" d="M557.78,47.22 C557.78,62.49 557.78,83.92 557.78,100.53 " fill="none" id="aws_api_gateway_rest_api-to-aws_api_gateway_resource" style="stroke:#1A83AF;stroke-width:2.0;"/><polygon fill="#1A83AF" points="557.78,105.41,561.78,96.41,557.78,100.41,553.78,96.41,557.78,105.41" style="stroke:#1A83AF;stroke-width:2.0;"/></g><!--link aws_api_gateway_rest_api to aws_lambda_function--><g id="link_aws_api_gateway_rest_api_aws_lambda_function"><path codeLine="40" d="M630.35,47.21 C660.39,59.18 692.26,77.95 709.78,106.79 C750.31,173.49 679.75,260.79 640.05,301.92 " fill="none" id="aws_api_gateway_rest_api-to-aws_lambda_function" style="stroke:#1A83AF;stroke-width:2.0;"/><polygon fill="#1A83AF" points="637.07,304.99,646.2115,301.3248,640.5552,301.4048,640.4752,295.7485,637.07,304.99" style="stroke:#1A83AF;stroke-width:2.0;"/></g><!--link aws_api_gateway_rest_api to aws_vpc_endpoint--><g id="link_aws_api_gateway_rest_api_aws_vpc_endpoint"><path codeLine="41" d="M624.56,47.22 C681.87,63.8 764.3,87.65 823.23,104.7 " fill="none" id="aws_api_gateway_rest_api-to-aws_vpc_endpoint" style="stroke:#1A83AF;stroke-width:2.0;"/><polygon fill="#1A83AF" points="827.85,106.32,820.3249,99.966,823.0489,104.9238,818.0911,107.6478,827.85,106.32" style="stroke:#1A83AF;stroke-width:2.0;"/></g><!--SRC=[fP9TJy8m58Rl-HLDk2PX4WLkJ2O9qHjYn3jZbhFrb3LixNBQiKpZVvS9QjtO-F2sv-dxSTfOScIOPhPaAQOXakcPjLGP4AJC9zB5J2UQM5y84ADnVJZNoXu55f0YkyTaWrP6K2UUOncj5Hh3hfpH7KJh5UbSyPsy9L1cEq9b7MgMW36-jIJ3tA8JXa_3YH1riYxQ7t5lV8CDJ1D7sYF3uP1xqpforAgpzm-nb6_8F7Tf2ssn4RDXyKLrfgm89sIZwFUyDUCZS2xLYbqxPq-xJAIG_fmlO-2wg6W1YN5jZ4L2RSiCPurME9rmCJu8FxJ1KRKv1eK989F12YmMK0QGsrZJTfV4tdiVBH37BD5bklr07H2XqJb5s8tOwg26992670AHgyXAhMhJJHO5g7YcvTw-eyBWfU_vav4_VntS7fBkjOPkt3piS8R02TQxPVp3-WI1txUxKE2xuHdNBw_kFlOd]--></g></svg>

<svg xmlns="http://www.w3.org/2000/svg" width="1000" height="352" preserveAspectRatio="none" style="width:1000px;height:352px"><rect width="285" height="39.789" x="278.28" y="206.58" fill="#3D176E" rx="2.5" ry="2.5" style="stroke:#000d19;stroke-width:.5"/><circle cx="293.28" cy="226.475" r="11" fill="#ADD1B2" style="stroke:#181818;stroke-width:1"/><path d="M296.249 232.115q-.578.297-1.219.438-.64.156-1.344.156-2.5 0-3.828-1.64-1.312-1.657-1.312-4.782t1.312-4.781q1.328-1.656 3.828-1.656.703 0 1.344.156.656.156 1.219.453v2.719q-.625-.578-1.219-.844-.594-.281-1.219-.281-1.344 0-2.031 1.078-.688 1.062-.688 3.156 0 2.094.688 3.172.688 1.062 2.031 1.062.625 0 1.219-.265.594-.281 1.219-.86v2.72Z"/><text x="312.28" y="232.36" fill="#D9B8FF" font-family="Helvetica" font-size="17" textLength="243">aws_api_gateway_authorizer</text><rect width="299" height="39.789" x="88.28" y="106.79" fill="#3D176E" rx="2.5" ry="2.5" style="stroke:#000d19;stroke-width:.5"/><circle cx="103.28" cy="126.684" r="11" fill="#ADD1B2" style="stroke:#181818;stroke-width:1"/><path d="M106.249 132.325q-.578.297-1.219.438-.64.156-1.344.156-2.5 0-3.828-1.64-1.312-1.657-1.312-4.782t1.312-4.781q1.328-1.656 3.828-1.656.703 0 1.344.156.656.156 1.219.453v2.719q-.625-.579-1.219-.844-.594-.281-1.219-.281-1.344 0-2.031 1.078-.688 1.062-.688 3.156 0 2.094.688 3.172.688 1.062 2.031 1.062.625 0 1.219-.265.594-.281 1.219-.86v2.72Z"/><text x="122.28" y="132.57" fill="#D9B8FF" font-family="Helvetica" font-size="17" textLength="257">aws_api_gateway_deployment</text><rect width="270" height="39.789" x="422.78" y="106.79" fill="#3D176E" rx="2.5" ry="2.5" style="stroke:#000d19;stroke-width:.5"/><circle cx="437.78" cy="126.684" r="11" fill="#ADD1B2" style="stroke:#181818;stroke-width:1"/><path d="M440.749 132.325q-.578.297-1.219.438-.64.156-1.344.156-2.5 0-3.828-1.64-1.312-1.657-1.312-4.782t1.312-4.781q1.328-1.656 3.828-1.656.703 0 1.344.156.656.156 1.219.453v2.719q-.625-.579-1.219-.844-.594-.281-1.219-.281-1.344 0-2.031 1.078-.688 1.062-.688 3.156 0 2.094.688 3.172.688 1.062 2.031 1.062.625 0 1.219-.265.594-.281 1.219-.86v2.72Z"/><text x="456.78" y="132.57" fill="#D9B8FF" font-family="Helvetica" font-size="17" textLength="228">aws_api_gateway_resource</text><rect width="265" height="39.789" x="425.28" y="7" fill="#3D176E" rx="2.5" ry="2.5" style="stroke:#000d19;stroke-width:.5"/><circle cx="440.28" cy="26.895" r="11" fill="#ADD1B2" style="stroke:#181818;stroke-width:1"/><path d="M443.249 32.535q-.578.297-1.219.438-.64.156-1.344.156-2.5 0-3.828-1.64-1.312-1.657-1.312-4.782t1.312-4.781q1.328-1.656 3.828-1.656.703 0 1.344.156.656.156 1.219.453v2.719q-.625-.578-1.219-.844-.594-.281-1.219-.281-1.344 0-2.031 1.078-.688 1.062-.688 3.156 0 2.094.688 3.172.688 1.062 2.031 1.062.625 0 1.219-.265.594-.281 1.219-.86v2.72Z"/><text x="459.28" y="32.78" fill="#D9B8FF" font-family="Helvetica" font-size="17" textLength="223">aws_api_gateway_rest_api</text><rect width="224" height="39.789" x="503.78" y="306.37" fill="#3D176E" rx="2.5" ry="2.5" style="stroke:#000d19;stroke-width:.5"/><circle cx="518.78" cy="326.264" r="11" fill="#ADD1B2" style="stroke:#181818;stroke-width:1"/><path d="M521.749 331.905q-.578.297-1.219.438-.64.156-1.344.156-2.5 0-3.828-1.64-1.312-1.657-1.312-4.782t1.312-4.781q1.328-1.656 3.828-1.656.703 0 1.344.156.656.156 1.219.453v2.719q-.625-.579-1.219-.844-.594-.281-1.219-.281-1.344 0-2.031 1.078-.688 1.062-.688 3.156 0 2.094.688 3.172.688 1.062 2.031 1.062.625 0 1.219-.265.594-.281 1.219-.86v2.72Z"/><text x="537.78" y="332.15" fill="#D9B8FF" font-family="Helvetica" font-size="17" textLength="182">aws_lambda_function</text><rect width="195" height="39.789" x="798.28" y="106.79" fill="#3D176E" rx="2.5" ry="2.5" style="stroke:#000d19;stroke-width:.5"/><circle cx="813.28" cy="126.684" r="11" fill="#ADD1B2" style="stroke:#181818;stroke-width:1"/><path d="M816.249 132.325q-.578.297-1.219.438-.64.156-1.344.156-2.5 0-3.828-1.64-1.312-1.657-1.312-4.782t1.312-4.781q1.328-1.656 3.828-1.656.703 0 1.344.156.656.156 1.219.453v2.719q-.625-.579-1.219-.844-.594-.281-1.219-.281-1.344 0-2.031 1.078-.688 1.062-.688 3.156 0 2.094.688 3.172.688 1.062 2.031 1.062.625 0 1.219-.265.594-.281 1.219-.86v2.72Z"/><text x="832.28" y="132.57" fill="#D9B8FF" font-family="Helvetica" font-size="17" textLength="153">aws_vpc_endpoint</text><path fill="none" d="M459.31 246.8c32.45 16.27 78.86 39.54 112.7 56.52" style="stroke:#1a83af;stroke-width:2"/><path fill="#1A83AF" d="m576.33 305.99-6.251-7.61 1.782 5.368-5.37 1.782 9.839.46z" style="stroke:#1a83af;stroke-width:2"/><path fill="none" d="M530.71 147.01c-22.51 16.07-54.6 38.97-78.3 55.89" style="stroke:#1a83af;stroke-width:2"/><path fill="#1A83AF" d="m448.79 206.2 9.647-1.986-5.581-.924.924-5.581-4.99 8.491z" style="stroke:#1a83af;stroke-width:2"/><path fill="none" d="M563.45 146.99c10.57 36 33.27 113.35 44.99 153.28" style="stroke:#1a83af;stroke-width:2"/><path fill="#1A83AF" d="m610.09 304.88 1.293-9.764-2.706 4.968-4.968-2.707 6.381 7.503z" style="stroke:#1a83af;stroke-width:2"/><path fill="none" d="M424.82 30.74c-128.25 5.88-309.35 23.54-354.04 76.05C6 182.91 149.66 210.34 272.07 220.15" style="stroke:#1a83af;stroke-width:2"/><path fill="#1A83AF" d="m276.88 220.6-8.665-4.682 3.68 4.296-4.297 3.68 9.282-3.294z" style="stroke:#1a83af;stroke-width:2"/><path fill="none" d="M494.56 47.22c-54.15 16.55-131.99 40.33-187.75 57.37" style="stroke:#1a83af;stroke-width:2"/><path fill="#1A83AF" d="m302.14 106.32 9.778 1.178-4.999-2.647 2.648-5-7.427 6.469z" style="stroke:#1a83af;stroke-width:2"/><path fill="none" d="M557.78 47.22v53.31" style="stroke:#1a83af;stroke-width:2"/><path fill="#1A83AF" d="m557.78 105.41 4-9-4 4-4-4 4 9z" style="stroke:#1a83af;stroke-width:2"/><path fill="none" d="M630.35 47.21c30.04 11.97 61.91 30.74 79.43 59.58 40.53 66.7-30.03 154-69.73 195.13" style="stroke:#1a83af;stroke-width:2"/><path fill="#1A83AF" d="m637.07 304.99 9.141-3.665-5.656.08-.08-5.656-3.405 9.241z" style="stroke:#1a83af;stroke-width:2"/><path fill="none" d="M624.56 47.22C681.87 63.8 764.3 87.65 823.23 104.7" style="stroke:#1a83af;stroke-width:2"/><path fill="#1A83AF" d="m827.85 106.32-7.525-6.354 2.724 4.958-4.958 2.724 9.759-1.328z" style="stroke:#1a83af;stroke-width:2"/></svg>
